client/src/assets/images/icon-task-history.svg

<svg viewBox="0 0 122 122" xmlns="http://www.w3.org/2000/svg"><g fill="#fff"><path d="m92.27 28.73h-16.57v-2a1 1 0 0 0 -1-1h-6.32a7.55 7.55 0 0 0 -14.76 0h-6.32a1 1 0 0 0 -1 1v2h-16.57a1 1 0 0 0 -1 1v71.47a1 1 0 0 0 1 1h62.54a1 1 0 0 0 1-1v-71.47a1 1 0 0 0 -1-1zm-44-1h6.18a1 1 0 0 0 1-.91 5.55 5.55 0 0 1 11.06 0 1 1 0 0 0 1 .91h6.19v10.37h-25.4zm26.43 12.37a1 1 0 0 0 1-1v-2h8.42v57.15h-46.24v-57.12h8.42v2a1 1 0 0 0 1 1zm16.57 60.1h-60.54v-69.47h15.57v4.4h-9.42a1 1 0 0 0 -1 1v59.12a1 1 0 0 0 1 1h48.24a1 1 0 0 0 1-1v-59.12a1 1 0 0 0 -1-1h-9.42v-4.4h15.57z"/><path d="m42.59 46.44h32.16v2h-32.16z"/><path d="m42.59 73.12h32.16v2h-32.16z"/><path d="m42.59 66.45h34.54v2h-34.54z"/><path d="m42.54 53.11h36.93v2h-36.93z"/><path d="m42.59 79.8h36.93v2h-36.93z"/><path d="m42.54 59.78h36.93v2h-36.93z"/></g></svg>

<svg xmlns="http://www.w3.org/2000/svg" viewBox="0 0 122 122"><defs><style>.cls-1{fill:#fff;}</style></defs><title>Week 22_Icons</title><g id="Content"><path class="cls-1" d="M92.27,28.73H75.7v-2a1,1,0,0,0-1-1H68.38a7.55,7.55,0,0,0-14.76,0H47.3a1,1,0,0,0-1,1v2H29.73a1,1,0,0,0-1,1V101.2a1,1,0,0,0,1,1H92.27a1,1,0,0,0,1-1V29.73A1,1,0,0,0,92.27,28.73Zm-44-1h6.18a1,1,0,0,0,1-.91,5.55,5.55,0,0,1,11.06,0,1,1,0,0,0,1,.91H73.7V38.1H48.3ZM74.7,40.1a1,1,0,0,0,1-1v-2h8.42V94.25H37.88V37.13H46.3v2a1,1,0,0,0,1,1Zm16.57,60.1H30.73V30.73H46.3v4.4H36.88a1,1,0,0,0-1,1V95.25a1,1,0,0,0,1,1H85.12a1,1,0,0,0,1-1V36.13a1,1,0,0,0-1-1H75.7v-4.4H91.27Z"/><rect class="cls-1" x="42.59" y="46.44" width="32.16" height="2"/><rect class="cls-1" x="42.59" y="73.12" width="32.16" height="2"/><rect class="cls-1" x="42.59" y="66.45" width="34.54" height="2"/><rect class="cls-1" x="42.54" y="53.11" width="36.93" height="2"/><rect class="cls-1" x="42.59" y="79.8" width="36.93" height="2"/><rect class="cls-1" x="42.54" y="59.78" width="36.93" height="2"/></g></svg>
